X:EATMD 13-01 28
T:?
M:6/8
K:G
P:A
ABA ABA |1,4 d2A A2F :|2,5 e2A A2F :|3,6 dcd e3 fed ABc d3 d3 :|
P:B
fed fed |1,4 e2A A3 :|2,5 g2e e3 :|3,6 gfe gfe fed ABc d3 d3 :|

